contributed-vectors/librus.svg

<svg xmlns="http://www.w3.org/2000/svg" xml:space="preserve" style="fill-rule:evenodd;clip-rule:evenodd;stroke-linejoin:round;stroke-miterlimit:2" viewBox="0 0 192 192"><path d="M164.5 21.5c0-5.519-4.481-10-10-10h-133c-5.519 0-10 4.481-10 10v133c0 5.519 4.481 10 10 10h133c5.519 0 10-4.481 10-10v-133Z" style="fill:#728dbe" transform="translate(8 8)"/><path d="M125.781 135.229c-16.824 0-30.463-13.638-30.463-30.463V19.102h39.034v78.069H172.5v38.058h-46.719Z" style="fill:#fff" transform="translate(0 .398)"/></svg>

<?xml version="1.0" encoding="UTF-8" standalone="no"?>
<!DOCTYPE svg PUBLIC "-//W3C//DTD SVG 1.1//EN" "http://www.w3.org/Graphics/SVG/1.1/DTD/svg11.dtd">
<svg width="100%" height="100%" viewBox="0 0 192 192" version="1.1" xmlns="http://www.w3.org/2000/svg" xmlns:xlink="http://www.w3.org/1999/xlink" xml:space="preserve" xmlns:serif="http://www.serif.com/" style="fill-rule:evenodd;clip-rule:evenodd;stroke-linejoin:round;stroke-miterlimit:2;">
    <g transform="matrix(1,0,0,1,8,8)">
        <g id="Layer1">
            <path d="M164.5,21.5C164.5,15.981 160.019,11.5 154.5,11.5L21.5,11.5C15.981,11.5 11.5,15.981 11.5,21.5L11.5,154.5C11.5,160.019 15.981,164.5 21.5,164.5L154.5,164.5C160.019,164.5 164.5,160.019 164.5,154.5L164.5,21.5Z" style="fill:rgb(114,141,190);"/>
        </g>
    </g>
    <g transform="matrix(1,0,0,1,0,0.397581)">
        <g id="Layer3">
            <path d="M125.781,135.229C108.957,135.229 95.318,121.591 95.318,104.766C95.318,70.359 95.318,19.102 95.318,19.102L134.352,19.102L134.352,97.171L172.5,97.171L172.5,135.229L125.781,135.229Z" style="fill:white;"/>
        </g>
    </g>
</svg>
